X: 37276
T: Skidoo
R: reel
M: 4/4
K: Eminor
|:"Em"GE (3EEE B2 AB|~G3A BdAG|"Bm"FdAF D2 BA|BFED EBFB|
"Am"GE (3EEE B2 AB|GBef gfed|"C"A2 de f2 fa|1 "D"gfed "Em"edBA:|2 "D"gfed "Em"~e3 f||
|:"Em"ge (3eee Bege|Bege "Am"cedc|"Em"BEGA BEGA|BEGA "D"(3B^cd ef|
"Em"e2 ed ebba|"C"g2 fg e2 AB|cAEA BGEG|1 "D" ADFD "Em"E2 ef:|2 "D"ADFD "Em"BEBA||

